X: 125
T:Wissahickon Drive
M:C|
L:1/8
C:Liz Carroll
R:Reel
K:A
EFAB cBAB|c2ef ecBA|F2dF eFde|feef edcA|!
EFAB cBAB|c2ef eAce|fagf eAcA|1BEGB A3E:|2BEGB A2ce|]!
a2ga baga|fAde fagf|eAce aece|aedc BEGB|!
a2ga baga|fAde fagf|eAce aedc|BEGB A2ce||!
a2ga baga|fAde fagf|eAce aece|aedc BEGB|!
A2ce ac'ba|fAde fagf|eAce aedc|BEGB A3E|]!
